assets/Crossed flags/Flat/crossed_flags_flat.svg

<svg width="32" height="32" viewBox="0 0 32 32" fill="none" xmlns="http://www.w3.org/2000/svg">
<path d="M10.0418 4.70023C9.93126 4.4472 10.0467 4.15243 10.2998 4.04184C10.5528 3.93126 10.8476 4.04674 10.9582 4.29977L11.3936 5.29609C11.5042 5.54912 11.3887 5.84389 11.1357 5.95448C10.8826 6.06506 10.5879 5.94958 10.4773 5.69655L10.0418 4.70023Z" fill="#9B9B9B"/>
<path d="M14.561 15.1018C14.4509 14.8486 14.5668 14.554 14.8201 14.4439C15.0733 14.3337 15.3679 14.4497 15.478 14.7029L15.9969 15.8956L16.5158 14.7029C16.626 14.4497 16.9205 14.3337 17.1737 14.4439C17.427 14.554 17.5429 14.8486 17.4328 15.1018L16.5422 17.149L20.9585 27.3005C21.0687 27.5538 20.9527 27.8483 20.6995 27.9585C20.4462 28.0687 20.1517 27.9527 20.0415 27.6995L15.9969 18.4024L11.9523 27.6995C11.8421 27.9527 11.5476 28.0687 11.2944 27.9585C11.0411 27.8483 10.9252 27.5538 11.0353 27.3005L15.4516 17.149L14.561 15.1018Z" fill="#9B9B9B"/>
<path d="M21.952 4.70023C22.0626 4.4472 21.9471 4.15243 21.6941 4.04184C21.441 3.93126 21.1462 4.04674 21.0357 4.29977L20.6002 5.29609C20.4897 5.54912 20.6051 5.84389 20.8582 5.95448C21.1112 6.06506 21.406 5.94958 21.5166 5.69655L21.952 4.70023Z" fill="#9B9B9B"/>
<path d="M11.3889 5.26168L4.96345 8.07775C4.43942 8.30742 4.21456 8.92912 4.47043 9.44086L5.26285 11.0257L7.91109 19.7632L9.5 17.5L15.4934 14.7225L11.3889 5.26168Z" fill="#E1D8EC"/>
<path d="M20.6111 5.26168L27.0366 8.07775C27.5606 8.30742 27.7854 8.92912 27.5296 9.44086L26.6914 11.1562L24.2949 20.4537L22.5 17.5L16.5066 14.7225L20.6111 5.26168Z" fill="#E1D8EC"/>
<path d="M9.5 17.5L8.95946 17.7703C8.70774 17.8961 8.40178 17.7895 8.28277 17.5345L5.30761 11.1592C5.34871 11.3826 5.23251 11.6146 5.0126 11.7089L2.95426 12.591C2.43312 12.8144 2.20172 13.4259 2.44444 13.9383L6.08213 21.6178C6.31453 22.1084 6.89592 22.324 7.39201 22.1036L10.5219 20.7125C10.7823 20.5967 10.8935 20.287 10.766 20.032L9.5 17.5Z" fill="#CDC4D6"/>
<path d="M22.5 17.5L23.0405 17.7703C23.2923 17.8961 23.5982 17.7895 23.7172 17.5345L26.6924 11.1592C26.6513 11.3826 26.7675 11.6146 26.9874 11.7089L29.0457 12.591C29.5669 12.8144 29.7983 13.4259 29.5556 13.9383L25.9179 21.6178C25.6855 22.1084 25.1041 22.324 24.608 22.1036L21.4781 20.7125C21.2177 20.5967 21.1065 20.287 21.234 20.032L22.5 17.5Z" fill="#F3EEF8"/>
<path d="M9.25 15.5C10.4926 15.5 11.5 14.4926 11.5 13.25C11.5 12.0074 10.4926 11 9.25 11C8.00736 11 7 12.0074 7 13.25C7 14.4926 8.00736 15.5 9.25 15.5Z" fill="#F8312F"/>
<path d="M22.75 15.5C21.5074 15.5 20.5 14.4926 20.5 13.25C20.5 12.0074 21.5074 11 22.75 11C23.9926 11 25 12.0074 25 13.25C25 14.4926 23.9926 15.5 22.75 15.5Z" fill="#F8312F"/>
</svg>

<svg xmlns="http://www.w3.org/2000/svg" width="32" height="32" fill="none"><path fill="#9B9B9B" d="M10.042 4.7a.5.5 0 0 1 .916-.4l.436.996a.5.5 0 1 1-.917.4l-.435-.996ZM14.561 15.102a.5.5 0 0 1 .917-.4l.519 1.194.519-1.193a.5.5 0 1 1 .917.399l-.89 2.047L20.958 27.3a.5.5 0 1 1-.918.4l-4.044-9.298-4.045 9.297a.5.5 0 1 1-.917-.399l4.417-10.151-.891-2.047ZM21.952 4.7a.5.5 0 1 0-.916-.4l-.436.996a.5.5 0 0 0 .917.4l.435-.996Z"/><path fill="#E1D8EC" d="M11.389 5.262 4.963 8.078A1 1 0 0 0 4.47 9.44l.793 1.585 2.648 8.737L9.5 17.5l5.993-2.777-4.104-9.461ZM20.611 5.262l6.426 2.816a1 1 0 0 1 .493 1.363l-.839 1.715-2.396 9.298L22.5 17.5l-5.993-2.777 4.104-9.461Z"/><path fill="#CDC4D6" d="m9.5 17.5-.54.27a.5.5 0 0 1-.677-.235l-2.975-6.376a.5.5 0 0 1-.295.55l-2.059.882a1 1 0 0 0-.51 1.347l3.638 7.68a1 1 0 0 0 1.31.486l3.13-1.392a.5.5 0 0 0 .244-.68L9.5 17.5Z"/><path fill="#F3EEF8" d="m22.5 17.5.54.27a.5.5 0 0 0 .677-.235l2.975-6.376a.5.5 0 0 0 .295.55l2.059.882a1 1 0 0 1 .51 1.347l-3.638 7.68a1 1 0 0 1-1.31.486l-3.13-1.392a.5.5 0 0 1-.244-.68L22.5 17.5Z"/><path fill="#F8312F" d="M9.25 15.5a2.25 2.25 0 1 0 0-4.5 2.25 2.25 0 0 0 0 4.5ZM22.75 15.5a2.25 2.25 0 1 1 0-4.5 2.25 2.25 0 0 1 0 4.5Z"/></svg>
